X: 144
T: Santa Lucia
O: Neapolitan Boat Song.
Q: "Andanteno."
%R: air, waltz
B: "The Everyday Song Book", 1927
F: http://www.library.pitt.edu/happybirthday/pdf/The_Everyday_Song_Book.pdf
Z: 2017 John Chambers <jc:trillian.mit.edu>
M: 3/8
L: 1/16
K: C
% - - - - - - - - - - - - - - - - - - - - - - - - - - - - -
[|\
!p!G2 G3 c | (c B) B4 | F2 F3 A | (AG) G4 | E2 A2 G2 | (G ^F) =F4 |
w: 1.~Now 'neath the sil-ver moon o-cean is glow-*ing,  O'er the calm bil-*low
w: 2.~When o'er thy wa-*ters light winds are play-*ing, Thy spell can soothe* us,
% 
F2 E2 D2 | A2 G4 | !p!G2 G3 c | c B B4 | F2 F3 A | (AG) G4 | E2 A2 G2 |
w: soft winds are blow-ing; Here balm-y breez-es blow, pure joys in-vite* us,  And as we
w: all care al-lay-ing;     To thee, sweet Nap-po-li, what charms are giv-*en, Where smiles cre-
%
F (^F =F4) | F2 E2 D2 | A2 G4 |: e2 d2 c2 | B A d4 | d2 c2 A2 |
w: gen-tly row, all things de-light us. Hark how the sail-or's cry Joy-ous-ly
w: a-*tion, toil blest by heav-en.      Home of fair Po-e-sy,      Realm of pure
%
^F G c4 | ec cG GE | Fd d4 |1 d2 A3 B | d2 c4 :|2 d2 e3 d | d2 c4 |]
w: ech-oes nigh; San-*ta* Lu-*ci-*a! San-ta Lu-ci-a! | ~ ~ ~ ~ ~
w: har-mo-ny, San-*ta* Lu-*ci-*a! (Omit.) . . . . | San-ta Lu-ci-a.
% - - - - - - - - - - - - - - - - - - - - - - - - - - - - -
